PortfolioPage/assets/software/designer.svg

<svg xmlns="http://www.w3.org/2000/svg" width="512" height="512" fill="none" viewBox="0 0 512 512">
  <g clip-path="url(#a)">
    <path fill="#1E3101" d="M421.333 0H90.6668C40.5929 0 0 41.6336 0 92.9912V419.009C0 470.366 40.5929 512 90.6668 512H421.333C471.407 512 512 470.366 512 419.009V92.9912C512 41.6336 471.407 0 421.333 0Z"/>
    <path fill="#99E83F" d="M94.0636 358.347v-224.05c-.033-.336-.0011-.675.0941-.999.0953-.323.2518-.624.4607-.884.2089-.261.466-.477.7566-.636.2906-.159.6089-.257.9366-.289h.1598c3.4269-.236 8.4726-.41 15.1066-.533 6.633-.123 14.426-.225 23.358-.348 8.932-.123 18.433-.174 28.504-.174 27.481 0 50.267 4.812 68.357 14.438 17.145 8.714 31.329 22.526 40.703 39.635 9.045 16.791 13.564 36.107 13.557 57.946.279 15.278-2.089 30.485-6.993 44.913-4.325 12.35-10.873 23.758-19.302 33.631-7.961 9.252-17.294 17.161-27.655 23.434-10.273 6.213-21.382 10.84-32.97 13.731-11.347 2.898-22.994 4.377-34.688 4.406h-25.576c-9.039 0-17.451-.058-25.237-.174-7.787-.116-13.628-.293-17.5242-.533-1.3588 0-2.0482-1.168-2.0482-3.514ZM141.46 173.748v145.845c2.518 0 4.809.058 6.874.174l6.354.348c2.168.123 4.636.185 7.383.185 10.389.133 20.726-1.537 30.572-4.939 8.816-3.07 16.852-8.122 23.519-14.787 6.714-6.872 11.874-15.173 15.116-24.316 3.697-10.509 5.501-21.619 5.325-32.79.21-10.517-1.54-20.979-5.155-30.823-3.22-8.494-8.335-16.095-14.937-22.195-6.749-6.097-14.724-10.596-23.358-13.177-9.647-2.902-19.66-4.325-29.713-4.222-4.576 0-8.412.051-11.499.174-3.088.123-6.584.297-10.481.523Zm279.584 58.858c-6.447-3.405-13.313-5.9-20.412-7.419-7.839-1.848-15.854-2.797-23.898-2.828-4.348-.114-8.69.421-12.888 1.588-2.668.615-5.038 2.175-6.694 4.407-1.12 1.784-1.717 3.861-1.718 5.984.066 2.059.789 4.039 2.058 5.636 2.009 2.406 4.46 4.383 7.213 5.82 4.9 2.688 9.947 5.083 15.116 7.173 11.529 3.975 22.543 9.374 32.8 16.077 6.991 4.521 12.776 10.754 16.835 18.138 3.415 6.99 5.129 14.725 4.995 22.543.209 10.326-2.667 20.47-8.242 29.07-5.967 8.727-14.251 15.513-23.868 19.552-10.464 4.693-23.356 7.039-38.675 7.039-9.727.1-19.438-.844-28.973-2.818-7.2-1.394-14.188-3.761-20.781-7.039-.75-.4-1.373-1.01-1.798-1.759-.425-.75-.633-1.607-.6-2.473V313.25c-.043-.373.014-.75.165-1.092.152-.341.392-.634.694-.845.295-.169.634-.243.971-.212.337.031.657.165.918.386 7.853 4.969 16.44 8.599 25.426 10.749 8.172 2.102 16.554 3.223 24.977 3.341 7.993 0 13.891-1.056 17.694-3.166 1.706-.802 3.15-2.095 4.155-3.72 1.005-1.626 1.53-3.516 1.51-5.441 0-3.04-1.715-5.974-5.145-8.802-3.431-2.829-10.424-6.244-20.981-10.247-10.783-3.851-21.007-9.183-30.392-15.852-6.711-4.794-12.239-11.127-16.145-18.496-3.385-6.94-5.098-14.611-4.996-22.369.026-9.326 2.567-18.462 7.343-26.396 5.396-8.76 13.148-15.731 22.32-20.074 10.071-5.165 22.666-7.747 37.785-7.747 8.852-.078 17.695.57 26.446 1.937 6.164.817 12.18 2.543 17.864 5.123.465.137.894.384 1.251.72.357.336.633.753.807 1.217.232.861.346 1.75.339 2.644v35.577c.028.412-.05.824-.225 1.196s-.442.691-.774.925c-.368.248-.798.38-1.239.38-.44 0-.87-.132-1.238-.38Z"/>
  </g>
  <defs>
    <clipPath id="a">
      <path fill="#fff" d="M0 0h512v512H0z"/>
    </clipPath>
  </defs>
</svg>

<svg width="512" height="512" viewBox="0 0 512 512" fill="none" xmlns="http://www.w3.org/2000/svg">
<g clip-path="url(#clip0_424_66)">
<path d="M421.333 0H90.6668C40.5929 0 0 41.6336 0 92.9912V419.009C0 470.366 40.5929 512 90.6668 512H421.333C471.407 512 512 470.366 512 419.009V92.9912C512 41.6336 471.407 0 421.333 0Z" fill="#1E3101"/>
<path d="M94.0636 358.347V134.297C94.0306 133.961 94.0625 133.622 94.1577 133.298C94.253 132.975 94.4095 132.674 94.6184 132.414C94.8273 132.153 95.0844 131.937 95.375 131.778C95.6656 131.619 95.9839 131.521 96.3116 131.489H96.4714C99.8983 131.253 104.944 131.079 111.578 130.956C118.211 130.833 126.004 130.731 134.936 130.608C143.868 130.485 153.369 130.434 163.44 130.434C190.921 130.434 213.707 135.246 231.797 144.872C248.942 153.586 263.126 167.398 272.5 184.507C281.545 201.298 286.064 220.614 286.057 242.453C286.336 257.731 283.968 272.938 279.064 287.366C274.739 299.716 268.191 311.124 259.762 320.997C251.801 330.249 242.468 338.158 232.107 344.431C221.834 350.644 210.725 355.271 199.137 358.162C187.79 361.06 176.143 362.539 164.449 362.568H138.873C129.834 362.568 121.422 362.51 113.636 362.394C105.849 362.278 100.008 362.101 96.1118 361.861C94.753 361.861 94.0636 360.693 94.0636 358.347ZM141.46 173.748V319.593C143.978 319.593 146.269 319.651 148.334 319.767L154.688 320.115C156.856 320.238 159.324 320.3 162.071 320.3C172.46 320.433 182.797 318.763 192.643 315.361C201.459 312.291 209.495 307.239 216.162 300.574C222.876 293.702 228.036 285.401 231.278 276.258C234.975 265.749 236.779 254.639 236.603 243.468C236.813 232.951 235.063 222.489 231.448 212.645C228.228 204.151 223.113 196.55 216.511 190.45C209.762 184.353 201.787 179.854 193.153 177.273C183.506 174.371 173.493 172.948 163.44 173.051C158.864 173.051 155.028 173.102 151.941 173.225C148.853 173.348 145.357 173.522 141.46 173.748Z" fill="#99E83F"/>
<path d="M421.044 232.606C414.597 229.201 407.731 226.706 400.632 225.187C392.793 223.339 384.778 222.39 376.734 222.359C372.386 222.245 368.044 222.78 363.846 223.947C361.178 224.562 358.808 226.122 357.152 228.354C356.032 230.138 355.435 232.215 355.434 234.338C355.5 236.397 356.223 238.377 357.492 239.974C359.501 242.38 361.952 244.357 364.705 245.794C369.605 248.482 374.652 250.877 379.821 252.967C391.35 256.942 402.364 262.341 412.621 269.044C419.612 273.565 425.397 279.798 429.456 287.182C432.871 294.172 434.585 301.907 434.451 309.725C434.66 320.051 431.784 330.195 426.209 338.795C420.242 347.522 411.958 354.308 402.341 358.347C391.877 363.04 378.985 365.386 363.666 365.386C353.939 365.486 344.228 364.542 334.693 362.568C327.493 361.174 320.505 358.807 313.912 355.529C313.162 355.129 312.539 354.519 312.114 353.77C311.689 353.02 311.481 352.163 311.514 351.297V313.25C311.471 312.877 311.528 312.5 311.679 312.158C311.831 311.817 312.071 311.524 312.373 311.313C312.668 311.144 313.007 311.07 313.344 311.101C313.681 311.132 314.001 311.266 314.262 311.487C322.115 316.456 330.702 320.086 339.688 322.236C347.86 324.338 356.242 325.459 364.665 325.577C372.658 325.577 378.556 324.521 382.359 322.411C384.065 321.609 385.509 320.316 386.514 318.691C387.519 317.065 388.044 315.175 388.024 313.25C388.024 310.21 386.309 307.276 382.879 304.448C379.448 301.619 372.455 298.204 361.898 294.201C351.115 290.35 340.891 285.018 331.506 278.349C324.795 273.555 319.267 267.222 315.361 259.853C311.976 252.913 310.263 245.242 310.365 237.484C310.391 228.158 312.932 219.022 317.708 211.088C323.104 202.328 330.856 195.357 340.028 191.014C350.099 185.849 362.694 183.267 377.813 183.267C386.665 183.189 395.508 183.837 404.259 185.204C410.423 186.021 416.439 187.747 422.123 190.327C422.588 190.464 423.017 190.711 423.374 191.047C423.731 191.383 424.007 191.8 424.181 192.264C424.413 193.125 424.527 194.014 424.52 194.908V230.485C424.548 230.897 424.47 231.309 424.295 231.681C424.12 232.053 423.853 232.372 423.521 232.606C423.153 232.854 422.723 232.986 422.282 232.986C421.842 232.986 421.412 232.854 421.044 232.606Z" fill="#99E83F"/>
</g>
<defs>
<clipPath id="clip0_424_66">
<rect width="512" height="512" fill="white"/>
</clipPath>
</defs>
</svg>
